remix/Media/volume-off-vibrate-fill.svg

<svg viewBox="0 0 24 24" fill="currentColor" xmlns="http://www.w3.org/2000/svg"><path d="M19.3891 3.16117L20.8033 4.57538L18.3277 7.04955L20.8033 9.52513L18.3277 11.9993L20.8033 14.4749L18.3284 16.9498L20.8033 19.4246L19.3891 20.8388L15.5 16.9498L17.9749 14.4749L15.5 12L17.9749 9.52513L15.5 7.05026L19.3891 3.16117ZM13 19.9449C13 20.221 12.7761 20.4449 12.5 20.4449C12.3846 20.4449 12.2727 20.405 12.1834 20.3319L6.88901 15.9991L3.00001 16C2.44772 16 2.00001 15.5523 2.00001 15V9.00001C2.00001 8.44772 2.44772 8.00001 3.00001 8.00001L5.58362 7.99762L1.80762 4.22183L3.22183 2.80762L12.9996 12.5856L13 19.9449ZM12.887 3.73851C12.9601 3.82784 13 3.93971 13 4.05513V9.75717L9.282 6.04017L12.1834 3.66815C12.3971 3.49328 12.7121 3.52479 12.887 3.73851Z"/></svg>

<svg viewBox="0 0 24 24" xmlns="http://www.w3.org/2000/svg"><path fill="none" d="M0 0h24v24H0Z"/><path d="M19.39 3.16l1.41 1.41 -2.48 2.47 2.47 2.47 -2.48 2.47 2.47 2.47 -2.48 2.47 2.47 2.47 -1.42 1.41 -3.89-3.89 2.47-2.474 -2.48-2.48 2.47-2.48 -2.48-2.48L19.33 3.1ZM13 19.944v0c0 .27-.23.5-.5.5 -.12 0-.23-.04-.32-.12l-5.293-4.34 -3.89 0v0c-.56 0-1-.45-1-1v-6 0c0-.56.44-1 1-1l2.58-.01L1.8 4.19l1.41-1.42 9.778 9.77v7.35ZM12.88 3.73V3.73c.07.08.11.2.11.31v5.7L9.272 6.02l2.901-2.38V3.64c.21-.18.52-.15.7.06 0 0 0 0 0 0Z"/></svg>
